!!!OTL: ES GIENG EIN KNAB SPAZIEREN
!!!ARE: Europa, Mitteleuropa, Deutschland, Schlesien
!!!SCT: E0131A
!!!YEM: Copyright 1995, estate of Helmut Schaffrath.
**kern
*ICvox
*Ivox
*M4/4
*k[b-e-]
*B-:
{4f
=1
4b-
8a
8g
4f
4b-
=2
2cc
4b-}
{4b-
=3
4.dd
8cc
4b-
4dd
=4
2cc
4r}
{8b-
8cc
=5
4dd
4dd
4dd
8ee-
8dd
=6
4.cc
8b-
4cc}
{8dd
8cc
=7
4b-
4b-
8cc
8b-
8a
8g
=8
2f}
{2b-
=9
4d
4d
4f
4f
=10
2b-}
{4.cc
8ee-
=11
4dd
4b-
8cc
8b-
4a
=12
2b-
4r}
==
!!!AGN: erzaehlendes Volks - Lied, Schalk -, Schelmen - Lied, Vergewaltigung, Ballade ?
!!!ONB: ESAC (Essen Associative Code) Database: ERK1
!!!AMT: simple quadruple
!!!AIN: vox
!!!EED: Helmut Schaffrath
!!!EEV: 1.0
*-
